assets/icons/appliance-filled.svg

<?xml version="1.0" encoding="UTF-8" standalone="no"?>
<svg
   viewBox="0 0 24 24"
   height="24"
   id="svg7384"
   version="1.1"
   width="24"
   sodipodi:docname="appliance-filled.svg"
   inkscape:version="1.2 (1:1.2.1+202207142221+cd75a1ee6d)"
   xmlns:inkscape="http://www.inkscape.org/namespaces/inkscape"
   xmlns:sodipodi="http://sodipodi.sourceforge.net/DTD/sodipodi-0.dtd"
   xmlns="http://www.w3.org/2000/svg"
   xmlns:svg="http://www.w3.org/2000/svg"
   xmlns:rdf="http://www.w3.org/1999/02/22-rdf-syntax-ns#"
   xmlns:cc="http://creativecommons.org/ns#"
   xmlns:dc="http://purl.org/dc/elements/1.1/">
  <sodipodi:namedview
     id="namedview40"
     pagecolor="#ffffff"
     bordercolor="#666666"
     borderopacity="1.0"
     inkscape:pageshadow="2"
     inkscape:pageopacity="0.0"
     inkscape:pagecheckerboard="0"
     showgrid="true"
     inkscape:zoom="34.073709"
     inkscape:cx="9.2740125"
     inkscape:cy="10.301197"
     inkscape:window-width="1920"
     inkscape:window-height="1043"
     inkscape:window-x="0"
     inkscape:window-y="0"
     inkscape:window-maximized="1"
     inkscape:current-layer="svg7384"
     inkscape:showpageshadow="2"
     inkscape:deskcolor="#d1d1d1">
    <inkscape:grid
       type="xygrid"
       id="grid42" />
  </sodipodi:namedview>
  <metadata
     id="metadata20854">
    <rdf:RDF>
      <cc:Work
         rdf:about="">
        <dc:format>image/svg+xml</dc:format>
        <dc:type
           rdf:resource="http://purl.org/dc/dcmitype/StillImage" />
      </cc:Work>
    </rdf:RDF>
  </metadata>
  <defs
     id="defs7386">
    <linearGradient
       id="linearGradient5606"
       inkscape:swatch="solid">
      <stop
         id="stop5608"
         offset="0"
         style="stop-color:#000000;stop-opacity:1;" />
    </linearGradient>
    <linearGradient
       id="linearGradient4526"
       inkscape:swatch="solid">
      <stop
         id="stop4528"
         offset="0"
         style="stop-color:#ffffff;stop-opacity:1;" />
    </linearGradient>
    <linearGradient
       id="linearGradient3600-4"
       inkscape:swatch="gradient">
      <stop
         id="stop3602-7"
         offset="0"
         style="stop-color:#f4f4f4;stop-opacity:1" />
      <stop
         id="stop3604-6"
         offset="1"
         style="stop-color:#dbdbdb;stop-opacity:1" />
    </linearGradient>
  </defs>
  <path
     id="path1065"
     style="fill:#808080;fill-rule:evenodd;stroke-width:2;stroke-linecap:square;stroke-linejoin:round"
     d="M 5.9492188 3 A 2.5 2.5 0 0 1 6 3.5 A 2.5 2.5 0 0 1 5.5839844 4.8769531 L 6.8535156 6.1464844 A 1.5 1.5 0 0 1 7.5 6 A 1.5 1.5 0 0 1 8.9121094 7 L 15.095703 7 A 1.5 1.5 0 0 1 16.5 6 A 1.5 1.5 0 0 1 17.146484 6.1464844 L 18.425781 4.8671875 A 2.5 2.5 0 0 1 18 3.5 A 2.5 2.5 0 0 1 18.080078 3 L 5.9492188 3 z M 19.132812 5.5742188 L 17.853516 6.8535156 A 1.5 1.5 0 0 1 18 7.5 A 1.5 1.5 0 0 1 17 8.9042969 L 17 15.087891 A 1.5 1.5 0 0 1 18 16.5 A 1.5 1.5 0 0 1 17.853516 17.146484 L 19.132812 18.425781 A 2.5 2.5 0 0 1 20.5 18 A 2.5 2.5 0 0 1 21 18.050781 L 21 5.9199219 A 2.5 2.5 0 0 1 20.5 6 A 2.5 2.5 0 0 1 19.132812 5.5742188 z M 4.8769531 5.5839844 A 2.5 2.5 0 0 1 3.5 6 A 2.5 2.5 0 0 1 3 5.9433594 L 3 18.080078 A 2.5 2.5 0 0 1 3.5 18 A 2.5 2.5 0 0 1 4.8769531 18.416016 L 6.1464844 17.146484 A 1.5 1.5 0 0 1 6 16.5 A 1.5 1.5 0 0 1 7 15.095703 L 7 8.9042969 A 1.5 1.5 0 0 1 6 7.5 A 1.5 1.5 0 0 1 6.1464844 6.8535156 L 4.8769531 5.5839844 z M 8.9042969 8 A 1.5 1.5 0 0 1 8 8.9042969 L 8 15.087891 A 1.5 1.5 0 0 1 8.9121094 16 L 15.095703 16 A 1.5 1.5 0 0 1 16 15.095703 L 16 8.9042969 A 1.5 1.5 0 0 1 15.095703 8 L 8.9042969 8 z M 8.9042969 17 A 1.5 1.5 0 0 1 7.5 18 A 1.5 1.5 0 0 1 6.8535156 17.853516 L 5.5839844 19.123047 A 2.5 2.5 0 0 1 6 20.5 A 2.5 2.5 0 0 1 5.9199219 21 L 18.080078 21 A 2.5 2.5 0 0 1 18 20.5 A 2.5 2.5 0 0 1 18.425781 19.132812 L 17.146484 17.853516 A 1.5 1.5 0 0 1 16.5 18 A 1.5 1.5 0 0 1 15.095703 17 L 8.9042969 17 z " />
  <circle
     style="fill:#808080;fill-rule:evenodd;stroke-width:2;stroke-linecap:round;stroke-linejoin:round"
     id="path580"
     cx="20.5"
     cy="3.5"
     r="1.5" />
  <circle
     style="fill:#808080;fill-rule:evenodd;stroke-width:2;stroke-linecap:round;stroke-linejoin:round"
     id="circle584"
     cx="20.5"
     cy="20.5"
     r="1.5" />
  <circle
     style="fill:#808080;fill-rule:evenodd;stroke-width:2;stroke-linecap:round;stroke-linejoin:round"
     id="circle588"
     cx="3.5"
     cy="20.5"
     r="1.5" />
  <circle
     style="fill:#808080;fill-rule:evenodd;stroke-width:2;stroke-linecap:round;stroke-linejoin:round"
     id="circle592"
     cx="3.5"
     cy="3.5"
     r="1.5" />
  <path
     id="path599"
     style="fill:#808080;fill-rule:evenodd;stroke-width:2;stroke-linecap:square;stroke-linejoin:round"
     d="M 5.9492188 3 A 2.5 2.5 0 0 1 6 3.5 A 2.5 2.5 0 0 1 5.5839844 4.8769531 L 6.8535156 6.1464844 A 1.5 1.5 0 0 1 7.5 6 A 1.5 1.5 0 0 1 8.9121094 7 L 15.095703 7 A 1.5 1.5 0 0 1 16.5 6 A 1.5 1.5 0 0 1 17.146484 6.1464844 L 18.425781 4.8671875 A 2.5 2.5 0 0 1 18 3.5 A 2.5 2.5 0 0 1 18.080078 3 L 5.9492188 3 z M 19.132812 5.5742188 L 17.853516 6.8535156 A 1.5 1.5 0 0 1 18 7.5 A 1.5 1.5 0 0 1 17 8.9042969 L 17 15.087891 A 1.5 1.5 0 0 1 18 16.5 A 1.5 1.5 0 0 1 17.853516 17.146484 L 19.132812 18.425781 A 2.5 2.5 0 0 1 20.5 18 A 2.5 2.5 0 0 1 21 18.050781 L 21 5.9199219 A 2.5 2.5 0 0 1 20.5 6 A 2.5 2.5 0 0 1 19.132812 5.5742188 z M 4.8769531 5.5839844 A 2.5 2.5 0 0 1 3.5 6 A 2.5 2.5 0 0 1 3 5.9433594 L 3 18.080078 A 2.5 2.5 0 0 1 3.5 18 A 2.5 2.5 0 0 1 4.8769531 18.416016 L 6.1464844 17.146484 A 1.5 1.5 0 0 1 6 16.5 A 1.5 1.5 0 0 1 7 15.095703 L 7 8.9042969 A 1.5 1.5 0 0 1 6 7.5 A 1.5 1.5 0 0 1 6.1464844 6.8535156 L 4.8769531 5.5839844 z M 8.9042969 8 A 1.5 1.5 0 0 1 8 8.9042969 L 8 15.087891 A 1.5 1.5 0 0 1 8.9121094 16 L 15.095703 16 A 1.5 1.5 0 0 1 16 15.095703 L 16 8.9042969 A 1.5 1.5 0 0 1 15.095703 8 L 8.9042969 8 z M 8.9042969 17 A 1.5 1.5 0 0 1 7.5 18 A 1.5 1.5 0 0 1 6.8535156 17.853516 L 5.5839844 19.123047 A 2.5 2.5 0 0 1 6 20.5 A 2.5 2.5 0 0 1 5.9199219 21 L 18.080078 21 A 2.5 2.5 0 0 1 18 20.5 A 2.5 2.5 0 0 1 18.425781 19.132812 L 17.146484 17.853516 A 1.5 1.5 0 0 1 16.5 18 A 1.5 1.5 0 0 1 15.095703 17 L 8.9042969 17 z " />
  <circle
     style="fill:#808080;fill-rule:evenodd;stroke-width:2;stroke-linecap:round;stroke-linejoin:round"
     id="circle601"
     cx="20.5"
     cy="3.5"
     r="1.5" />
  <circle
     style="fill:#808080;fill-rule:evenodd;stroke-width:2;stroke-linecap:round;stroke-linejoin:round"
     id="circle603"
     cx="20.5"
     cy="20.5"
     r="1.5" />
  <circle
     style="fill:#808080;fill-rule:evenodd;stroke-width:2;stroke-linecap:round;stroke-linejoin:round"
     id="circle605"
     cx="3.5"
     cy="20.5"
     r="1.5" />
  <circle
     style="fill:#808080;fill-rule:evenodd;stroke-width:2;stroke-linecap:round;stroke-linejoin:round"
     id="circle607"
     cx="3.5"
     cy="3.5"
     r="1.5" />
</svg>

<svg height="24" width="24" xmlns="http://www.w3.org/2000/svg"><path style="fill:gray;stroke-width:2;stroke-linecap:square;stroke-linejoin:round" d="M5.95 3a2.5 2.5 0 0 1 .05.5 2.5 2.5 0 0 1-.416 1.377l1.27 1.27A1.5 1.5 0 0 1 7.5 6a1.5 1.5 0 0 1 1.412 1h6.184A1.5 1.5 0 0 1 16.5 6a1.5 1.5 0 0 1 .646.146l1.28-1.279A2.5 2.5 0 0 1 18 3.5a2.5 2.5 0 0 1 .08-.5H5.95zm13.183 2.574-1.28 1.28A1.5 1.5 0 0 1 18 7.5a1.5 1.5 0 0 1-1 1.404v6.184a1.5 1.5 0 0 1 1 1.412 1.5 1.5 0 0 1-.146.646l1.279 1.28A2.5 2.5 0 0 1 20.5 18a2.5 2.5 0 0 1 .5.05V5.92a2.5 2.5 0 0 1-.5.08 2.5 2.5 0 0 1-1.367-.426zm-14.256.01A2.5 2.5 0 0 1 3.5 6a2.5 2.5 0 0 1-.5-.057V18.08a2.5 2.5 0 0 1 .5-.08 2.5 2.5 0 0 1 1.377.416l1.27-1.27A1.5 1.5 0 0 1 6 16.5a1.5 1.5 0 0 1 1-1.404V8.904A1.5 1.5 0 0 1 6 7.5a1.5 1.5 0 0 1 .146-.646l-1.269-1.27zM8.904 8A1.5 1.5 0 0 1 8 8.904v6.184a1.5 1.5 0 0 1 .912.912h6.184a1.5 1.5 0 0 1 .904-.904V8.904A1.5 1.5 0 0 1 15.096 8H8.904zm0 9A1.5 1.5 0 0 1 7.5 18a1.5 1.5 0 0 1-.646-.146l-1.27 1.269A2.5 2.5 0 0 1 6 20.5a2.5 2.5 0 0 1-.08.5h12.16a2.5 2.5 0 0 1-.08-.5 2.5 2.5 0 0 1 .426-1.367l-1.28-1.28A1.5 1.5 0 0 1 16.5 18a1.5 1.5 0 0 1-1.404-1H8.904z"/><circle style="fill:gray;stroke-width:2;stroke-linecap:round;stroke-linejoin:round" cx="20.5" cy="3.5" r="1.5"/><circle style="fill:gray;stroke-width:2;stroke-linecap:round;stroke-linejoin:round" cx="20.5" cy="20.5" r="1.5"/><circle style="fill:gray;stroke-width:2;stroke-linecap:round;stroke-linejoin:round" cx="3.5" cy="20.5" r="1.5"/><circle style="fill:gray;stroke-width:2;stroke-linecap:round;stroke-linejoin:round" cx="3.5" cy="3.5" r="1.5"/><path style="fill:gray;stroke-width:2;stroke-linecap:square;stroke-linejoin:round" d="M5.95 3a2.5 2.5 0 0 1 .05.5 2.5 2.5 0 0 1-.416 1.377l1.27 1.27A1.5 1.5 0 0 1 7.5 6a1.5 1.5 0 0 1 1.412 1h6.184A1.5 1.5 0 0 1 16.5 6a1.5 1.5 0 0 1 .646.146l1.28-1.279A2.5 2.5 0 0 1 18 3.5a2.5 2.5 0 0 1 .08-.5H5.95zm13.183 2.574-1.28 1.28A1.5 1.5 0 0 1 18 7.5a1.5 1.5 0 0 1-1 1.404v6.184a1.5 1.5 0 0 1 1 1.412 1.5 1.5 0 0 1-.146.646l1.279 1.28A2.5 2.5 0 0 1 20.5 18a2.5 2.5 0 0 1 .5.05V5.92a2.5 2.5 0 0 1-.5.08 2.5 2.5 0 0 1-1.367-.426zm-14.256.01A2.5 2.5 0 0 1 3.5 6a2.5 2.5 0 0 1-.5-.057V18.08a2.5 2.5 0 0 1 .5-.08 2.5 2.5 0 0 1 1.377.416l1.27-1.27A1.5 1.5 0 0 1 6 16.5a1.5 1.5 0 0 1 1-1.404V8.904A1.5 1.5 0 0 1 6 7.5a1.5 1.5 0 0 1 .146-.646l-1.269-1.27zM8.904 8A1.5 1.5 0 0 1 8 8.904v6.184a1.5 1.5 0 0 1 .912.912h6.184a1.5 1.5 0 0 1 .904-.904V8.904A1.5 1.5 0 0 1 15.096 8H8.904zm0 9A1.5 1.5 0 0 1 7.5 18a1.5 1.5 0 0 1-.646-.146l-1.27 1.269A2.5 2.5 0 0 1 6 20.5a2.5 2.5 0 0 1-.08.5h12.16a2.5 2.5 0 0 1-.08-.5 2.5 2.5 0 0 1 .426-1.367l-1.28-1.28A1.5 1.5 0 0 1 16.5 18a1.5 1.5 0 0 1-1.404-1H8.904z"/><circle style="fill:gray;stroke-width:2;stroke-linecap:round;stroke-linejoin:round" cx="20.5" cy="3.5" r="1.5"/><circle style="fill:gray;stroke-width:2;stroke-linecap:round;stroke-linejoin:round" cx="20.5" cy="20.5" r="1.5"/><circle style="fill:gray;stroke-width:2;stroke-linecap:round;stroke-linejoin:round" cx="3.5" cy="20.5" r="1.5"/><circle style="fill:gray;stroke-width:2;stroke-linecap:round;stroke-linejoin:round" cx="3.5" cy="3.5" r="1.5"/></svg>
